icons/evolvere-blue-folders-flat-vivid-dark-fallback/apps/64/meocloud.svg

<?xml version="1.0" encoding="UTF-8" standalone="no"?>
<!-- Created with Inkscape (http://www.inkscape.org/) -->

<svg
   xmlns:dc="http://purl.org/dc/elements/1.1/"
   xmlns:cc="http://creativecommons.org/ns#"
   xmlns:rdf="http://www.w3.org/1999/02/22-rdf-syntax-ns#"
   xmlns:svg="http://www.w3.org/2000/svg"
   xmlns="http://www.w3.org/2000/svg"
   xmlns:sodipodi="http://sodipodi.sourceforge.net/DTD/sodipodi-0.dtd"
   xmlns:inkscape="http://www.inkscape.org/namespaces/inkscape"
   width="64"
   height="64"
   id="svg13094"
   version="1.1"
   inkscape:version="0.91+devel r"
   sodipodi:docname="meocloud.svg">
  <sodipodi:namedview
     id="base"
     pagecolor="#ffffff"
     bordercolor="#666666"
     borderopacity="1.0"
     inkscape:pageopacity="0"
     inkscape:pageshadow="2"
     inkscape:zoom="11.313709"
     inkscape:cx="20.828896"
     inkscape:cy="30.022458"
     inkscape:document-units="px"
     inkscape:current-layer="svg13094"
     showgrid="true"
     inkscape:snap-bbox="true"
     inkscape:bbox-paths="true"
     inkscape:bbox-nodes="true"
     inkscape:snap-bbox-edge-midpoints="true"
     inkscape:snap-bbox-midpoints="true"
     inkscape:object-paths="true"
     inkscape:snap-intersection-paths="true"
     inkscape:object-nodes="true"
     inkscape:snap-smooth-nodes="true"
     inkscape:snap-midpoints="true"
     inkscape:snap-object-midpoints="true"
     inkscape:snap-center="true"
     showguides="true"
     inkscape:guide-bbox="true"
     inkscape:window-width="1920"
     inkscape:window-height="1023"
     inkscape:window-x="-10"
     inkscape:window-y="35"
     inkscape:window-maximized="1"
     inkscape:snap-global="true"
     fit-margin-top="0"
     fit-margin-left="0"
     fit-margin-right="0"
     fit-margin-bottom="0"
     showborder="true"
     inkscape:showpageshadow="false"
     inkscape:snap-page="true">
    <inkscape:grid
       type="xygrid"
       id="grid3075"
       empspacing="5"
       visible="true"
       enabled="true"
       snapvisiblegridlinesonly="true"
       originx="0px"
       originy="18px" />
  </sodipodi:namedview>
  <defs
     id="defs13096" />
  <metadata
     id="metadata13099">
    <rdf:RDF>
      <cc:Work
         rdf:about="">
        <dc:format>image/svg+xml</dc:format>
        <dc:type
           rdf:resource="http://purl.org/dc/dcmitype/StillImage" />
        <dc:title></dc:title>
      </cc:Work>
    </rdf:RDF>
  </metadata>
  <path
     inkscape:connector-curvature="0"
     style="color:#000000;fill:#2ea8d6;fill-opacity:1;fill-rule:nonzero;stroke:none;stroke-width:2.28571415;marker:none;visibility:visible;display:inline;overflow:visible;enable-background:accumulate"
     d="m 0,4 0,30 0,28 2,2 30,0 30,0 2,-2 L 64,34 64,4 32,4 0,4 z"
     id="path3443" />
  <path
     inkscape:connector-curvature="0"
     style="color:#000000;fill:#73def0;fill-opacity:1;fill-rule:nonzero;stroke:none;stroke-width:2.28571415000000000;marker:none;visibility:visible;display:inline;overflow:visible;enable-background:accumulate"
     d="M 2,0 0,1 0,4 32,4 64,4 64,1 62,0 32,0 2,0 z"
     id="path3447" />
  <path
     style="fill:#8ee4f3;fill-opacity:1;fill-rule:nonzero"
     d="M 0,3 0,6 2,4 Z"
     id="path4298"
     inkscape:connector-curvature="0"
     sodipodi:nodetypes="cccc" />
  <path
     d="M 64,6 62,4 64,3 z"
     id="path3028"
     style="fill:#4fc1e2;fill-opacity:1"
     inkscape:connector-curvature="0" />
  <g
     id="g3043"
     inkscape:export-filename="folder.png"
     inkscape:export-xdpi="90"
     inkscape:export-ydpi="90"
     transform="translate(-0.625,0.082283)" />
  <g
     id="scalable"
     transform="matrix(1.0385892,0,0,1.0385892,1214.7222,1878.8121)"
     inkscape:label="#g3701"
     style="fill:#ffffff" />
  <g
     id="Layer_2"
     transform="translate(3.4267635e-8,32)" />
  <path
     style="color:#000000;fill:#e2f5f8;fill-opacity:0.97048301;fill-rule:nonzero;stroke:none;stroke-width:1;marker:none;visibility:visible;display:inline;overflow:visible;enable-background:accumulate"
     d="m 25.765625,20 c -4.880696,0 -8.857525,3.730006 -9.269531,8.503906 -3.682084,1.510866 -6.261719,5.15244 -6.261719,9.378906 C 10.234375,43.467025 14.740006,48 20.324219,48 l 23.351562,0 c 5.584213,0 10.089844,-4.532975 10.089844,-10.117188 0,-5.584212 -4.505631,-10.117187 -10.089844,-10.117187 -0.14924,0 -0.289837,-0.0064 -0.4375,0 -1.610342,-2.802938 -4.656569,-4.648438 -8.121094,-4.648438 -0.736642,0 -1.445381,0.112112 -2.132812,0.273438 C 31.272505,21.316318 28.665119,20 25.765625,20 z m 0,4.375 c 2.738414,0 4.976562,2.210805 4.976562,4.949219 0,0.218949 -0.02718,0.444799 -0.05469,0.65625 0.865785,-1.547877 2.530074,-2.597657 4.429687,-2.597657 2.795465,0 5.058594,2.26313 5.058594,5.058594 0,0.232956 -0.02422,0.458995 -0.05469,0.683594 l 0.328125,0 c 0.915489,-0.618492 2.038575,-0.984375 3.226562,-0.984375 3.167967,0 5.714844,2.574221 5.714844,5.742187 0,3.167967 -2.546877,5.742188 -5.714844,5.742188 l -23.351562,0 c -3.167967,0 -5.714844,-2.574221 -5.714844,-5.742188 0,-3.167966 2.546877,-5.742187 5.714844,-5.742187 0.524112,0 1.048886,0.08708 1.53125,0.21875 -0.643112,-0.836264 -1.039063,-1.898649 -1.039063,-3.035156 0,-2.738414 2.210805,-4.949219 4.949219,-4.949219 z"
     id="path3940"
     inkscape:connector-curvature="0"
     sodipodi:nodetypes="scssssscscssscssccsssssscss" />
</svg>

<svg xmlns="http://www.w3.org/2000/svg" viewBox="0 0 64 64"><g color="#000"><path d="m0 4v30 28l2 2h30 30l2-2v-28-30h-32-32" fill="#2ea8d6"/><path d="m2 0l-2 1v3h32 32v-3l-2-1h-30-30" fill="#73def0"/></g><path d="m0 3v3l2-2" fill="#8ee4f3"/><path d="m64 6l-2-2 2-1z" fill="#4fc1e2"/><path d="m25.766 20c-4.881 0-8.858 3.73-9.27 8.504-3.682 1.511-6.262 5.152-6.262 9.379 0 5.584 4.506 10.117 10.09 10.117h23.352c5.584 0 10.09-4.533 10.09-10.117 0-5.584-4.506-10.117-10.09-10.117-.149 0-.29-.006-.438 0-1.61-2.803-4.657-4.648-8.121-4.648-.737 0-1.445.112-2.133.273-1.712-2.074-4.319-3.391-7.219-3.391m0 4.375c2.738 0 4.977 2.211 4.977 4.949 0 .219-.027.445-.055.656.866-1.548 2.53-2.598 4.43-2.598 2.795 0 5.059 2.263 5.059 5.059 0 .233-.024.459-.055.684h.328c.915-.618 2.039-.984 3.227-.984 3.168 0 5.715 2.574 5.715 5.742 0 3.168-2.547 5.742-5.715 5.742h-23.352c-3.168 0-5.715-2.574-5.715-5.742 0-3.168 2.547-5.742 5.715-5.742.524 0 1.049.087 1.531.219-.643-.836-1.039-1.899-1.039-3.035 0-2.738 2.211-4.949 4.949-4.949" fill="#e2f5f8" fill-opacity=".97" color="#000"/></svg>
